X:1292
T:Cornwall's Sett. CJF.080
T:Miss Ellison's. CJF.080
O:england
M:6/8
L:1/8
Q:100
S: C.J.Fox MS, 1829/33, Beverley,E.Yorks.
R:Quadrille
A:East Yorkshire
B:Kidson Coll.Mitchell Lib.M1805
N:See notes on  Cornwall's Sett. CJF.079
K:G
D|G2AB2c|d3B2G|A2AE2A|F3DEF|G2AB2c|\
d3B2g|e2a {g/}fef|g3-g2h||d|ABAA2c|B2dg2g|
{g/}fef def|g2b dBG|FAFD2d|B2dg2g|fed ^cde|\
d3-d2^d|e2e EF^G|A2Bc2e|d2d DEF|G2AB2d|
c2BA2G|F2GA2B|AdF AGE|DE^C DE" $"F||


